X:1
T:Cold Haily Rainy Night
M:4/4
L:1/4
K:C
 A| F D D3/2 E/2| F G AG/2-F/2| G G G A| d c A d| F D D E|F/2-E/2F/2-G/2 AG/2-F/2|\
G/2-A/2f/2-d/2c/2-A/2G/2-F/2| G A2 z| FE/2-D/2 D A| d3/2 d/2 d- A|\
 c2 c G| A3/2 d/2c/2-A/2G/2-A/2| FE/2-D/2 DA/2-c/2| d3/2 e/2 f e/2d/2|\
 c A G3/2 F/2| G A2 z|
